icons/Smartwatch_2.svg

<svg width="24" height="24" viewBox="0 0 24 24" fill="none" xmlns="http://www.w3.org/2000/svg">
<path fill-rule="evenodd" clip-rule="evenodd" d="M9.23832,8.13489l-0.00618,0.02781l-0.02473,-0.0055c-1.18632,0.86359 -1.95741,2.2631 -1.95741,3.8428c0,1.5797 0.77109,2.9792 1.95741,3.8428l0.02473,-0.0055l0.00618,0.0278c0.77818,0.5571 1.73168,0.8849 2.76168,0.8849c1.03,0 1.9835,-0.3278 2.7617,-0.8849l0.0062,-0.0278l0.0247,0.0055c1.1863,-0.8636 1.9574,-2.2631 1.9574,-3.8428c0,-1.5797 -0.7711,-2.97921 -1.9574,-3.8428l-0.0247,0.0055l-0.0062,-0.02781c-0.7782,-0.55704 -1.7317,-0.88489 -2.7617,-0.88489c-1.03,0 -1.9835,0.32785 -2.76168,0.88489zM9.66843,6.19939c0.72047,-0.28986 1.50737,-0.44939 2.33157,-0.44939c0.8242,0 1.6111,0.15953 2.3316,0.4494l-0.2157,-0.97056c-0.1271,-0.57193 -0.6344,-0.97884 -1.2202,-0.97884h-1.7914c-0.5858,0 -1.0931,0.40691 -1.22019,0.97884zM16.111,7.29222c1.3109,1.14568 2.139,2.82998 2.139,4.70778c0,1.8778 -0.8281,3.5621 -2.139,4.7078l-0.5308,2.3888c-0.2796,1.2582 -1.3956,2.1534 -2.6845,2.1534h-1.7914c-1.28888,0 -2.40487,-0.8952 -2.68447,-2.1534l-0.53084,-2.3888c-1.31091,-1.1457 -2.13899,-2.83 -2.13899,-4.7078c0,-1.8778 0.82808,-3.5621 2.13899,-4.70778l0.53084,-2.38878c0.2796,-1.25823 1.39559,-2.15344 2.68447,-2.15344h1.7914c1.2889,0 2.4049,0.89521 2.6845,2.15344zM12,18.25c-0.8242,0 -1.6111,-0.1595 -2.33157,-0.4494l0.21568,0.9706c0.12709,0.5719 0.63439,0.9788 1.22019,0.9788h1.7914c0.5858,0 1.0931,-0.4069 1.2202,-0.9788l0.2157,-0.9706c-0.7205,0.2899 -1.5074,0.4494 -2.3316,0.4494z" fill="#002B51"/>
</svg>

<svg width="24" height="24" viewBox="0 0 24 24" fill="none" xmlns="http://www.w3.org/2000/svg">
<path fill-rule="evenodd" clip-rule="evenodd" d="M9.23832 8.13489L9.23214 8.1627L9.20741 8.1572C8.02109 9.02079 7.25 10.4203 7.25 12C7.25 13.5797 8.02109 14.9792 9.20741 15.8428L9.23214 15.8373L9.23832 15.8651C10.0165 16.4222 10.97 16.75 12 16.75C13.03 16.75 13.9835 16.4222 14.7617 15.8651L14.7679 15.8373L14.7926 15.8428C15.9789 14.9792 16.75 13.5797 16.75 12C16.75 10.4203 15.9789 9.02079 14.7926 8.1572L14.7679 8.1627L14.7617 8.13489C13.9835 7.57785 13.03 7.25 12 7.25C10.97 7.25 10.0165 7.57785 9.23832 8.13489ZM9.66843 6.19939C10.3889 5.90953 11.1758 5.75 12 5.75C12.8242 5.75 13.6111 5.90953 14.3316 6.1994L14.1159 5.22884C13.9888 4.65691 13.4815 4.25 12.8957 4.25H11.1043C10.5185 4.25 10.0112 4.65691 9.88411 5.22884L9.66843 6.19939ZM16.111 7.29222C17.4219 8.4379 18.25 10.1222 18.25 12C18.25 13.8778 17.4219 15.5621 16.111 16.7078L15.5802 19.0966C15.3006 20.3548 14.1846 21.25 12.8957 21.25H11.1043C9.81542 21.25 8.69943 20.3548 8.41983 19.0966L7.88899 16.7078C6.57808 15.5621 5.75 13.8778 5.75 12C5.75 10.1222 6.57808 8.4379 7.88899 7.29222L8.41983 4.90344C8.69943 3.64521 9.81542 2.75 11.1043 2.75H12.8957C14.1846 2.75 15.3006 3.64521 15.5802 4.90344L16.111 7.29222ZM12 18.25C11.1758 18.25 10.3889 18.0905 9.66843 17.8006L9.88411 18.7712C10.0112 19.3431 10.5185 19.75 11.1043 19.75H12.8957C13.4815 19.75 13.9888 19.3431 14.1159 18.7712L14.3316 17.8006C13.6111 18.0905 12.8242 18.25 12 18.25Z" fill="#002B51"/>
</svg>
